symbols/web/looks_4/materialsymbolsoutlined/looks_4_wght500gradN25_24px.svg

<svg xmlns="http://www.w3.org/2000/svg" height="24" width="24"><path d="M13.025 16.875H15v-9.75h-1.975v3.9h-2.05v-3.9H9V13h4.025Zm-7.85 4.1q-.9 0-1.525-.625-.625-.625-.625-1.525V5.175q0-.9.625-1.525.625-.625 1.525-.625h13.65q.9 0 1.525.625.625.625.625 1.525v13.65q0 .9-.625 1.525-.625.625-1.525.625Zm0-2.15h13.65V5.175H5.175v13.65Zm0-13.65v13.65-13.65Z"/></svg>

<svg xmlns="http://www.w3.org/2000/svg" height="24" width="24"><path d="M13.025 16.875H15V7.125H13.025V11.025H10.975V7.125H9V13H13.025ZM5.175 20.975Q4.275 20.975 3.65 20.35Q3.025 19.725 3.025 18.825V5.175Q3.025 4.275 3.65 3.65Q4.275 3.025 5.175 3.025H18.825Q19.725 3.025 20.35 3.65Q20.975 4.275 20.975 5.175V18.825Q20.975 19.725 20.35 20.35Q19.725 20.975 18.825 20.975ZM5.175 18.825H18.825Q18.825 18.825 18.825 18.825Q18.825 18.825 18.825 18.825V5.175Q18.825 5.175 18.825 5.175Q18.825 5.175 18.825 5.175H5.175Q5.175 5.175 5.175 5.175Q5.175 5.175 5.175 5.175V18.825Q5.175 18.825 5.175 18.825Q5.175 18.825 5.175 18.825ZM5.175 5.175Q5.175 5.175 5.175 5.175Q5.175 5.175 5.175 5.175V18.825Q5.175 18.825 5.175 18.825Q5.175 18.825 5.175 18.825Q5.175 18.825 5.175 18.825Q5.175 18.825 5.175 18.825V5.175Q5.175 5.175 5.175 5.175Q5.175 5.175 5.175 5.175Z"/></svg>
